X:1
T:Partition sans titre
C:Compositeur / Arrangeur
L:1/8
M:4/4
I:linebreak $
K:C
V:1 treble nm="Violon" snm="Vln."
V:1
 GB |"D" dBBA"G" BBGB |"D" dBBA"G" BBGB |"D" dBBA"G" Bg^fe |1 dcBA G2 :|2 dcBA G2 |: GD | %7
"G" GABA G^FED | GBAG ^F(PEE)D | GABc dBge |1 dcBA G2 :|2 dcBA GB |] %12
